X: 701
T: Ey Dil Bize...
C: Ali Ufkî
O: Turkey
F: http://compmusic.upf.edu/node/140
N: huseyni--ilahi--turkdarbi--ey_dil--ali_ufki
N: makam= huseyni
N: form= ilahi
N: usul= turkdarbi = 14/4
M: 14/4
L: 1/16
K: C _2/4B ^3/4f  
Q: 1/4=96
%%MIDI tuningsystem comma53
A4 c4 d4 e4 e4 e4 d8 e22d2  | z52  | \
w:  Ey  dil  bi ze  ver  bir  ha ber    |  | 
e4f4g4a4b4g8f8e16  | a4a4a4e4f4g4f2 e2d8c8_1/4B4A4  | 
w:  Aşk  il le ri ne  kim  gi der    |  Has ret le  yan dı  ci ğer *  *  Mev lâ    | 
z56  | g4 f4 e4 d2c2 B2A2 G4 c8 B8 A8 z8  | z56  | \
w:  |  Aşk  il le ri *  *  *  ne  kim  gi der    |  | 
A4 c4 d4 e4 e4 e4 d8 e22d2  | 
w:  Ey  dil  bi ze  ver  bir  ha ber    | 
z52  | e4f4g4a4b4g8f8e16  | a4a4a4e4f4g4f2 e2d8c8_1/4B4A4  | 
w:  |  Aşk  il le ri ne  kim  gi der    |  Has ret le  yan dı  ci ğer *  *  Mev lâ    | 
z56  | g4 f4 e4 d2c2 B2A2 G4 c8 B8 A8 z8  | |


